X:1
T:The New Song (Best)
T:The New Song (Best)
T:John Robson Sweney
T:Flora Lydia Best, 1874
T:Public Domain Courtesy of the Cyber Hymnal™
T:Public Domain Courtesy of the Cyber Hymnal™
C:John Robson Sweney
Z:Public Domain
Z:Courtesy of the Cyber Hymnal™
%%score ( 1 2 ) ( 3 4 )
L:1/8
Q:1/4=105
M:4/4
K:D
V:1 treble 
V:2 treble 
V:3 bass 
V:4 bass 
V:1
 [DF]>"^Modertato"[EG] | [FA]3 [^E^G] [FA]2 [Fd]>[Fd] | [Ec]2 ([Fd][Ge]) [Fd]2 [Fd][Ac] | %3
w: 1.~There are|songs of joy that I|loved to * sing, When my|
w: 2.~There are|strains of home that are|dear as * life, And I|
w: 3.~Can my|lips be mute, or my|heart be * sad, When the|
w: 4.~I shall|catch the gleam of its|jas- per * wall When I|
 [GB]2 ([GB]>[GB]) [FA]2 D[DE] | (F2 E)D !fermata![CA]2 [CA][EG] | [DF]2 [DF]>[DF] [DF]2 ([DE]D) | %6
w: heart was * blithe as a|bird * in spring, But the|song I have learned is~so *|
w: list to~them * oft ’mid the|din * of strife; But I|know of a home that~is *|
w: gra- cious * Mas- ter hath|made * me glad? When He|points where the ma- ny *|
w: come to~the * gloom of the|e- * ven fall, For I|know that the sha- dows, *|
 [DA]2 (Bc) [Fd]2 ([Fd][Fd]) | [Fd]2 (AF) [FA]2 [FA][EG] | [DF]2 [CE]2 !fermata!D2 || %9
w: full of * cheer, That~the *|dawn shines * out in the|dark- ness drear.|
w: wond- rous * fair, And~I *|sing the * psalm they are|sing- ing there.|
w: man- sions * be, And *|sweet- ly * says, “There is|one for thee”?|
w: drear- y~and * dim, Have~a *|path of * light that will|lead to Him.|
"^Refrain" [DA]>"^Vivace"[DF] | d6 [Fd]2 | c6 [Ec]>[EA] | e6 [Ge]2 | d6 [Fd][Ac] | B6 [Gd]2 | %15
w: ||||||
w: O the|new, new|song! O the|new, new|song! I can|sing it|
w: ||||||
w: ||||||
 A6 [Fd][Fd] | c6 [DB]2 | (z2 [CA]>[CA] [CA]2) z2 | [CA]2 [CG]2 [Gc]2 [Ge]2 | [Fd]4 [FA]2 [FA]2 | %20
w: |||||
w: now with the|ran- somed||* throng: Pow- er|and do- min-|
w: |||||
w: |||||
 (A2 G2) [Gc]2 [Ge]2 | d6 F4 | [DB]4 [GB]2 [Gc]2 | [Fd]4 [DA]2 [EG]2 | [DF]4 [CE]3 [A,D] | %25
w: |||||
w: ion * to Him|that shall|* reign, Glo-|ry and praise|to the Lamb|
w: |||||
w: |||||
 [A,D]6 |] %26
w: |
w: that|
w: |
w: |
V:2
 x2 | x8 | x8 | x6 D x | D3 D x4 | x7 D | x2 G2 x4 | x2 D2 x4 | x4 D2 || x2 | (F2 F>F F2) x2 | %11
 (E2 E2 E2) x2 | (G2 G>G G2) x2 | (F2 F2 F2) x2 | (G2 G>G G2) x2 | (F2 F2 F2) x2 | (E2 E>E E2) x2 | %17
 [CA]6 x2 | x8 | x8 | E4 x4 | F2 F>F x6 | x8 | x8 | x8 | x6 |] %26
V:3
 [D,A,]>[D,A,] | [D,D]3 [D,D] [D,D]2 [D,A,]>[D,A,] | A,2 [A,,A,]2 [D,A,]2 [D,A,][F,D] | %3
w: ~ ~|~ ~ ~ ~ ~|~ ~ ~ ~ ~|
 [G,D]2 [G,D]>[G,D] [D,D]2 [D,F,][D,G,] | (A,2 G,)[D,F,] !fermata![A,,E,]2 [A,,E,][A,,A,] | %5
w: ~ ~ ~ ~ ~ ~|~ * ~ ~ ~ ~|
 [D,A,]2 [D,A,]>[D,A,] [D,A,]2 ([D,G,][D,F,]) | [F,D]2 ([G,D][E,A,]) [D,A,]2 ([D,A,][D,A,]) | %7
w: ~ ~ ~ ~ ~ *|~ ~ * ~ ~ *|
 [D,A,]2 (F,A,) [D,D]2 [F,D][G,B,] | A,2 [A,,G,]2 !fermata![D,F,]2 || [D,F,]>[D,A,] | %10
w: ~ ~ * ~ ~ ~|~ ~ ~|~ ~|
 [D,A,]2 [D,A,]>[D,A,] [D,A,]2 [D,A,]2 | A,2 [A,,A,]2 [A,,A,]2 [A,,A,]>[A,,C] | %12
w: ~ O, the new, ~|new song! ~ ~ ~|
 [A,,C]2 [A,C]>[A,C] [A,C]2 [A,C]2 | [D,D]2 [D,A,]2 [D,A,]2 [D,A,][F,D] | %14
w: ~ O, the new, ~|~ new song! ~ ~|
 [G,D]2 [G,D]>[G,D] [G,D]2 [G,,B,]2 | [D,A,]2 [D,A,]2 [D,A,]2 [D,A,][D,A,] | %16
w: ~ I can sing ~|~ just now ~ ~|
 [E,A,]2 [E,A,]>[E,A,] [E,A,]2 [E,^G,]2 | z2 [A,,A,]>[A,,A,] [A,,A,]2 z2 | %18
w: ran- somed, the ran- somed|throng: ~ ~|
 [A,,A,]2 [A,,A,]2 [A,,A,]2 [C,A,]2 | [D,A,]4 [D,D]2 [D,D]2 | [A,C]4 [A,,A,]2 [C,A,]2 | %21
w: * ~ ~ ~|~ ~ ~|~ ~ ~|
 [D,A,]2 [D,A,]>[D,A,] (A,2 =C2) x2 | [G,B,]4 [G,D]2 [E,A,]2 | [D,A,]4 [F,A,]2 [G,B,]2 | %24
w: ~ ~ ~ that *|shall reign: *||
 A,4 [A,,G,]3 [D,F,] | [D,F,]6 |] %26
w: ||
V:4
 x2 | x8 | A,2 x6 | x8 | D,3 x5 | x8 | x8 | x2 D,2 x4 | A,2 x4 || x2 | x8 | A,2 x6 | x8 | x8 | x8 | %15
 x8 | x8 | [A,,A,]6 x2 | x8 | x8 | x8 | x4 D,4 x2 | x8 | x8 | A,4 x4 | x6 |] %26

